X:1
T:He Loves Me
T:He Loves Me
T:Charles Hutchinson Gabriel, Jr.
T:Rene Brower, 1916
T:Public Domain Courtesy of the Cyber Hymnal™
T:Public Domain Courtesy of the Cyber Hymnal™
C:Charles Hutchinson Gabriel, Jr.
Z:Public Domain
Z:Courtesy of the Cyber Hymnal™
%%score 1 ( 2 3 )
L:1/8
Q:1/4=95
M:4/4
K:A
V:1 treble 
V:2 bass 
V:3 bass 
V:1
 [CE] [CF]2 [CE] [Ec] [Ec]2 [EB] | [FA]2 [DF][DA] [CE]4 | [CE] [CF]2 [CE] [Ec] [Ec]2 [CA] | %3
w: 1.~Is your heart griev- ing o’er|life and its care?|Hard- ly be- liev- ing that|
w: 2.~Though friends may leave you your|bur- den to bear,|Though foes de- ceive you, and|
w: 3.~Love is a trea- sure that|gold can- not buy,|God’s full- est mea- sure gave|
 [^DF]2 [DB][Dc] [=DB]4 | [CE] [CF]2 [CE] [Ec] [Ec]2 [EB] | [FA]2 [DF][DA] [CE]4 | %6
w: God an- swers prayer?|Seek Him and know of His|love full and free,|
w: life fills with care,|There is a com- fort that|ne- ver will flee,|
w: Je- sus to die;|Pur- chased sal- va- tion on|Cal- va- ry’s tree—|
 [DF][EG][FA][GB] [Ac][Bd] [ce]/[df] z/ | [Ac]2 [GB]2 [EA]4 || %8
w: ’Till your heart is filled with sing- ing,|“He loves me.”|
w: If your heart is al- ways sing- ing,|“He loves me.”|
w: Let your heart be ev- er sing- ing,|“He loves me.”|
"^Refrain" [CE]2 [A,C]2 [CE] [CA]2 [DB] | [Ec][Ee][Ec][DB] [CA]4 | [DF]2 [DA]2 [CE] [CA]2 [Ec] | %11
w: |||
w: Grace and par- don He|of- fers you to- day,|Full sal- va- tion and|
w: |||
 [^Dc][DB][DF][Dc] [=DB]4 | [Ee]2 [Ec]2 [CA] [Ec]2 [Ec] | [DB][DA][DF][DA] [CE]4 | %14
w: |||
w: com- fort on life’s way;|Take Him now and for-|ev- er- more be free;|
w: |||
 [DF][EG][FA][GB] [Ac][Bd] [ce]/[df] z/ | [Ac]2 [GB]2 [EA]4 |] %16
w: ||
w: Let your heart be al- ways sing- ing,|“He loves me.”|
w: ||
V:2
 [A,,A,] [A,,A,]2 [A,,A,] [A,,A,] [A,,A,]2 [C,A,] | [D,D]2 [D,A,][F,A,] A,4 | %2
 [A,,A,] [A,,A,]2 [A,,A,] [A,,A,] [A,,A,]2 [A,,A,] | [B,,A,]2 [B,,A,][B,,A,] (z D,C,B,,) | %4
 [A,,A,] [A,,A,]2 [A,,A,] [A,,A,] [A,,A,]2 [C,A,] | [D,D]2 [D,A,][F,A,] A,4 | %6
 [D,F,][E,G,][F,A,][G,B,] [A,C][B,D] [CE]/[DF] z/ | [E,E]2 [E,D]2 [A,,C]4 || %8
 [A,,A,]2 [A,,E,]2 [A,,A,] [A,,A,]2 [E,G,] | A,[A,C][E,A,][E,G,] [A,,A,]4 | %10
 [D,A,]2 [F,A,]2 A, A,2 [A,,A,] | [B,,A,][B,,A,][A,,A,][A,,A,] (z D,C,B,,) | %12
 [A,,C]2 [A,,A,]2 [A,,E,] [A,,A,]2 [A,,A,] | [D,F,][D,F,][D,A,][F,A,] A,4 | %14
 [D,F,][E,G,][F,A,][G,B,] [A,C][B,D] [CE]/[DF] z/ | [E,E]2 [E,D]2 [A,,C]4 |] %16
V:3
 x8 | x4 A,4 | x8 | x4 [E,G,]4 | x8 | x4 A,4 | x8 | x8 || x8 | A, x7 | x4 A, A,2 x | x4 [E,G,]4 | %12
 x8 | x4 A,4 | x8 | x8 |] %16

